X: 29242
T: New Jigs, The
R: jig
M: 6/8
K: Ddorian
A2D A2D|ABc B2A|dcd A2D|ABc B2A|A2D A2D|ABc B2A|dcd A2D|ABc B2A|
AGE AGE|ABc B2A|dcd A2D|ABc B2A|AGE AGE|ABc B2A|dcd A2D|ABc B2A||
A2AAGF|G2GGFE|F2F FED|EFE E2D|A2AAGF|G2GGFE|F2F FED|EFE E2D|
G2GGFE|F2FFED|E2E E2A,|A,B,C B,2A,|G2GGFE|F2FFED|E2E EFG|AGF D3||

